startshape PLANT
CF::MinimumSize = 3

shape PLANT
{
	EITHER [x 0]

}

shape BOTH
{
	BL [rotate 45]
	BL [rotate  -35 flip 145]
	BL [a -.7 sat 1 h 120-280]
}

shape EITHER
rule {BL[rotate -35]}
rule {BL[rotate 45]}
rule{BL[rotate - 15 ]}

shape BL
{
	SQUARE [ a -.3  sat 1 b .25 h 30]
        SQUARE [b 1 x .2 size .8+1.2]
	WL [size .95 y .9 flip 90] //kopejas ipasibas visam formam
}

shape WL
rule 8 {BL [ rotate randint(90, 25)]}
rule {BOTH [flip 90]}
rule {BL []}

